assets/bottom-menu/avatar-tab-avatar.svg

<?xml version="1.0" encoding="UTF-8" standalone="no"?>
<svg
   width="36.521744"
   height="31.304333"
   viewBox="0 0 36.521744 31.304333"
   fill="none"
   version="1.1"
   id="svg7"
   sodipodi:docname="avatar-tab-avatar.svg"
   xmlns:inkscape="http://www.inkscape.org/namespaces/inkscape"
   xmlns:sodipodi="http://sodipodi.sourceforge.net/DTD/sodipodi-0.dtd"
   xmlns="http://www.w3.org/2000/svg"
   xmlns:svg="http://www.w3.org/2000/svg">
  <sodipodi:namedview
     id="namedview7"
     pagecolor="#ffffff"
     bordercolor="#000000"
     borderopacity="0.25"
     inkscape:showpageshadow="2"
     inkscape:pageopacity="0.0"
     inkscape:pagecheckerboard="0"
     inkscape:deskcolor="#d1d1d1">
    <inkscape:page
       x="0"
       y="0"
       width="36.521744"
       height="31.304333"
       id="page2"
       margin="0"
       bleed="0" />
  </sodipodi:namedview>
  <g
     clip-path="url(#clip0_47223_91506)"
     id="g7"
     transform="translate(-2.23926,-4.34937)">
    <path
       fill-rule="evenodd"
       clip-rule="evenodd"
       d="m 20.5,4.34937 c -7.684,0 -13.91304,6.22903 -13.91304,13.91303 v 0.8136 c -2.57684,1.2806 -4.3477,3.9398 -4.3477,7.0125 0,4.3222 3.50386,7.8261 7.82604,7.8261 h 20.8696 c 4.3222,0 7.8261,-3.5039 7.8261,-7.8261 0,-3.0728 -1.771,-5.732 -4.348,-7.0126 V 18.2624 C 34.413,10.5784 28.184,4.34937 20.5,4.34937 Z"
       fill="#9069cd"
       id="path1" />
    <path
       d="m 10.2236,18.2624 c 0,-5.763 4.6718,-10.43476 10.4348,-10.43476 5.763,0 10.4348,4.67176 10.4348,10.43476 v 6.9565 c 0,5.763 -4.6718,10.4348 -10.4348,10.4348 -5.763,0 -10.4348,-4.6718 -10.4348,-10.4348 z"
       fill="#f3ad6d"
       id="path2" />
    <path
       d="m 6.74561,21.3061 c 0,-2.1611 1.75192,-3.913 3.91299,-3.913 h 20 c 2.1612,0 3.9131,1.7519 3.9131,3.913 0,2.1611 -1.7519,3.9131 -3.9131,3.9131 h -20 c -2.16107,0 -3.91299,-1.752 -3.91299,-3.9131 z"
       fill="#f3ad6d"
       id="path3" />
    <path
       d="m 16.3105,17.8278 c 0,-0.7204 0.584,-1.3044 1.3044,-1.3044 0.7204,0 1.3043,0.584 1.3043,1.3044 v 3.4782 c 0,0.7204 -0.5839,1.3044 -1.3043,1.3044 -0.7204,0 -1.3044,-0.584 -1.3044,-1.3044 z"
       fill="#bf8034"
       id="path4" />
    <path
       d="m 21.5283,17.8278 c 0,-0.7204 0.584,-1.3044 1.3044,-1.3044 0.7203,0 1.3043,0.584 1.3043,1.3044 v 3.4782 c 0,0.7204 -0.584,1.3044 -1.3043,1.3044 -0.7204,0 -1.3044,-0.584 -1.3044,-1.3044 z"
       fill="#bf8034"
       id="path5" />
    <path
       d="m 15.4409,25.2562 c 0,-0.5007 0.4059,-0.9066 0.9066,-0.9066 h 7.7521 c 0.5007,0 0.9065,0.4059 0.9065,0.9066 v 0.3978 c 0,2.6413 -2.1412,4.7826 -4.7826,4.7826 -2.6413,0 -4.7826,-2.1413 -4.7826,-4.7826 z"
       fill="#ffffff"
       id="path6" />
    <path
       d="m 6.74561,18.2661 v -0.0037 c 0,-7.684 6.22909,-13.91303 13.91299,-13.91303 2.4673,0 4.7845,0.6422 6.7937,1.76856 C 26.3543,13.4781 19.8378,19.132 11.963,19.132 c -1.8294,0 -3.5855,-0.3052 -5.21739,-0.8659 z"
       fill="#9069cd"
       id="path7" />
  </g>
  <defs
     id="defs7">
    <clipPath
       id="clip0_47223_91506">
      <rect
         width="40"
         height="40"
         fill="#ffffff"
         transform="translate(0.5)"
         id="rect7"
         x="0"
         y="0" />
    </clipPath>
  </defs>
</svg>

<svg width="41" height="40" viewBox="0 0 41 40" fill="none" xmlns="http://www.w3.org/2000/svg"><g clip-path="url(#clip0_47223_91506)"><path fill-rule="evenodd" clip-rule="evenodd" d="M20.5 4.34937C12.816 4.34937 6.58696 10.5784 6.58696 18.2624V19.076C4.01012 20.3566 2.23926 23.0158 2.23926 26.0885C2.23926 30.4107 5.74312 33.9146 10.0653 33.9146H30.9349C35.2571 33.9146 38.761 30.4107 38.761 26.0885C38.761 23.0157 36.99 20.3565 34.413 19.0759V18.2624C34.413 10.5784 28.184 4.34937 20.5 4.34937Z" fill="#9069CD"/><path d="M10.2236 18.2624C10.2236 12.4994 14.8954 7.82764 20.6584 7.82764C26.4214 7.82764 31.0932 12.4994 31.0932 18.2624V25.2189C31.0932 30.9819 26.4214 35.6537 20.6584 35.6537C14.8954 35.6537 10.2236 30.9819 10.2236 25.2189V18.2624Z" fill="#F3AD6D"/><path d="M6.74561 21.3061C6.74561 19.145 8.49753 17.3931 10.6586 17.3931H30.6586C32.8198 17.3931 34.5717 19.145 34.5717 21.3061C34.5717 23.4672 32.8198 25.2192 30.6586 25.2192H10.6586C8.49753 25.2192 6.74561 23.4672 6.74561 21.3061Z" fill="#F3AD6D"/><path d="M16.3105 17.8278C16.3105 17.1074 16.8945 16.5234 17.6149 16.5234C18.3353 16.5234 18.9192 17.1074 18.9192 17.8278V21.306C18.9192 22.0264 18.3353 22.6104 17.6149 22.6104C16.8945 22.6104 16.3105 22.0264 16.3105 21.306V17.8278Z" fill="#BF8034"/><path d="M21.5283 17.8278C21.5283 17.1074 22.1123 16.5234 22.8327 16.5234C23.553 16.5234 24.137 17.1074 24.137 17.8278V21.306C24.137 22.0264 23.553 22.6104 22.8327 22.6104C22.1123 22.6104 21.5283 22.0264 21.5283 21.306V17.8278Z" fill="#BF8034"/><path d="M15.4409 25.2562C15.4409 24.7555 15.8468 24.3496 16.3475 24.3496H24.0996C24.6003 24.3496 25.0061 24.7555 25.0061 25.2562V25.654C25.0061 28.2953 22.8649 30.4366 20.2235 30.4366C17.5822 30.4366 15.4409 28.2953 15.4409 25.654V25.2562Z" fill="white"/><path d="M6.74561 18.2661V18.2624C6.74561 10.5784 12.9747 4.34937 20.6586 4.34937C23.1259 4.34937 25.4431 4.99157 27.4523 6.11793C26.3543 13.4781 19.8378 19.132 11.963 19.132C10.1336 19.132 8.3775 18.8268 6.74561 18.2661Z" fill="#9069CD"/></g><defs><clipPath id="clip0_47223_91506"><rect width="40" height="40" fill="white" transform="translate(0.5)"/></clipPath></defs></svg>
